X: 13540
T: Flowers Of The Red Mill, The
R: reel
M: 4/4
K: Adorian
aged BG~G2|G2dG eGde|aged BGGA|BedB BA^ce:|
~a2af g2fg|eaaf gedg|ea~a2 g2ab|gedB BA^ce|
abfa (3gbg fg|ea~a2 gedg|bgag gedg|egdB BA~a2||

